assets/img/braze_icons/hash-01.svg

<svg fill="none" height="24" viewBox="0 0 24 24" width="24" xmlns="http://www.w3.org/2000/svg"><path clip-rule="evenodd" d="m8 2c.55228 0 1 .44772 1 1v4h6v-4c0-.55228.4477-1 1-1s1 .44772 1 1v4h3c.5523 0 1 .44772 1 1s-.4477 1-1 1h-3v6h3c.5523 0 1 .4477 1 1s-.4477 1-1 1h-3v4c0 .5523-.4477 1-1 1s-1-.4477-1-1v-4h-6v4c0 .5523-.44772 1-1 1s-1-.4477-1-1v-4h-3c-.55228 0-1-.4477-1-1s.44772-1 1-1h3v-6h-3c-.55228 0-1-.44772-1-1s.44772-1 1-1h3v-4c0-.55228.44772-1 1-1zm7 13v-6h-6v6z" fill="#801ed7" fill-rule="evenodd"/></svg>

<svg width="24" height="24" viewBox="0 0 24 24" fill="none" xmlns="http://www.w3.org/2000/svg">
<path fill-rule="evenodd" clip-rule="evenodd" d="M8 2C8.55228 2 9 2.44772 9 3V7H15V3C15 2.44772 15.4477 2 16 2C16.5523 2 17 2.44772 17 3V7H20C20.5523 7 21 7.44772 21 8C21 8.55228 20.5523 9 20 9H17V15H20C20.5523 15 21 15.4477 21 16C21 16.5523 20.5523 17 20 17H17V21C17 21.5523 16.5523 22 16 22C15.4477 22 15 21.5523 15 21V17H9V21C9 21.5523 8.55228 22 8 22C7.44772 22 7 21.5523 7 21V17H4C3.44772 17 3 16.5523 3 16C3 15.4477 3.44772 15 4 15H7V9H4C3.44772 9 3 8.55228 3 8C3 7.44772 3.44772 7 4 7H7V3C7 2.44772 7.44772 2 8 2ZM15 15V9H9V15H15Z" fill="#801ED7"/>
</svg>
